X: 1191
T: the Merry Lads of Ayr.   a Reel.
C: by John Riddle.
%R: reel
B: Niel Gow & Sons "Complete Repository" v.1 p.19 #1
Z: 2021 John Chambers <jc:trillian.mit.edu>
M: C|
L: 1/8
K: C
% - - - - - - - - - -
% Voice 1 formatted for proofreading.
V: 1 staves=2
f !segno!|\
edcd cGG(f |e)dce f2f>g | ~edcd cGGc | (A/B/c) GE D2D :| d | ~c2g>a Tg>ede | c/c/c ga {a}g2Tfe |
c>ega gece | Tf>g (a/g/f/e/) d2de || ~c2g>a Tg>ede | c/c/c ga {a}g2(Tfe) | cega gece | faeg defg !segno!|]
% - - - - - - - - - -
% Voice 2 preserves the book's staff layout.
V: 2 clef=bass middle=d
z !segno!|\
c2c2 c2c2 | c2c2 d2d2 | c2c2 c2e2 | f2e2 g2G :| z | c'2c'2 g2g2 | c'2c2 e2c2 |
c2c'2 e2e2 | f2f2 g2g2 || c'2c'2 g2g2 | c'2c2 e2f2 | e2c2 c2c2 | f2e2 g2G2 !segno!|]
